<?xml version="1.0" encoding="UTF-8"?>
<map version="1.10" tiledversion="1.12.2" orientation="orthogonal" renderorder="right-down" width="45" height="45" tilewidth="80" tileheight="80" infinite="0" nextlayerid="6" nextobjectid="206">
 <tileset firstgid="1" source="../tsx/Sand.tsx"/>
 <tileset firstgid="31" source="../tsx/Walls.tsx"/>
 <tileset firstgid="49" source="../tsx/Spawnpoint_Placeholder.tsx"/>
 <tileset firstgid="50" source="../tsx/Wall_NPC.tsx"/>
 <layer id="1" name="Sand" width="45" height="45">
  <data encoding="csv">
19,21,23,23,23,24,19,24,23,24,23,20,23,20,24,23,23,24,21,22,22,23,24,22,20,20,21,23,20,20,22,1,2,2,2,2,2,2,2,2,2,2,2,2,2,
20,21,23,24,23,23,22,24,24,23,24,21,24,20,24,24,23,21,24,24,23,24,23,21,22,24,24,22,22,24,21,4,5,5,5,5,5,5,5,5,5,5,5,5,5,
21,22,24,1,2,2,2,3,23,23,23,24,24,24,21,21,19,21,24,1,2,2,2,2,2,3,24,22,24,20,24,7,12,5,5,5,5,10,12,5,10,12,5,5,10,
24,24,23,4,10,8,8,9,20,23,24,22,1,2,3,24,24,21,1,18,5,5,5,10,8,9,23,23,23,24,22,21,4,5,5,5,5,6,4,10,25,18,5,5,16,
3,19,24,4,6,1,2,3,22,24,24,21,4,5,16,3,22,22,4,5,5,5,10,9,24,24,20,23,23,24,23,24,7,8,12,5,5,6,7,25,18,5,5,5,5,
16,3,20,4,6,7,12,6,22,21,21,24,4,5,5,6,23,23,7,12,5,5,6,23,21,24,24,24,23,24,23,24,20,22,4,5,5,6,1,26,12,5,5,5,5,
5,6,21,4,16,2,18,6,22,23,22,24,7,12,5,16,3,24,22,7,8,8,9,1,2,2,2,2,2,2,2,3,22,23,7,8,8,9,4,16,26,12,5,5,5,
5,16,3,7,8,8,8,9,24,22,24,24,19,7,12,5,6,23,20,24,19,24,1,18,5,5,5,5,5,5,5,16,2,3,24,22,23,1,18,5,16,18,5,5,5,
5,5,6,24,23,24,24,20,22,24,1,3,23,22,7,8,9,24,20,24,22,24,4,5,5,5,5,5,5,5,5,5,5,16,2,2,2,26,8,12,5,5,5,5,5,
5,5,16,2,3,24,21,24,24,21,4,16,2,3,24,23,24,22,20,1,3,22,7,8,12,5,5,5,5,5,5,5,5,5,5,5,5,16,3,4,5,5,5,5,10,
5,5,5,5,16,3,22,22,21,24,4,5,5,16,2,2,3,24,1,18,6,22,21,24,7,12,5,5,5,5,5,5,5,5,5,5,10,8,9,7,12,5,10,8,9,
5,5,5,5,5,16,3,22,23,23,7,8,8,8,8,8,9,20,4,5,16,3,23,20,23,7,8,8,12,5,10,8,8,12,5,10,9,23,24,23,7,8,9,22,23,
5,5,5,5,5,5,16,3,21,20,22,21,20,22,19,23,19,24,7,8,8,9,23,1,2,3,23,24,7,8,9,23,1,18,5,16,3,22,24,1,2,2,2,2,2,
5,5,5,5,5,10,8,9,24,23,22,23,24,24,24,23,1,2,2,2,3,24,1,18,10,9,24,24,24,24,24,24,7,8,8,8,9,22,1,18,5,5,5,5,5,
5,5,10,12,10,9,22,24,1,2,3,23,24,23,21,22,4,5,5,5,16,3,7,8,9,24,24,22,23,23,23,20,21,21,23,19,24,22,7,12,5,5,5,5,5,
5,5,6,7,9,22,21,1,18,5,16,2,3,20,22,22,4,5,5,5,5,6,24,20,21,20,1,2,2,3,19,24,24,24,24,22,24,23,24,4,5,5,5,10,12,
5,5,16,3,19,20,1,18,5,5,5,5,6,23,24,24,4,5,5,5,5,16,3,20,22,22,4,5,10,9,22,22,23,24,21,23,24,22,21,4,5,5,5,16,26,
5,5,5,16,2,3,7,8,12,5,5,5,6,23,21,23,4,5,5,5,5,5,16,3,24,24,4,5,6,23,24,24,22,21,21,24,23,19,24,4,5,5,5,5,16,
5,5,5,5,5,16,2,3,7,12,5,5,6,23,24,19,7,12,5,5,5,5,5,6,24,21,4,10,9,21,21,1,2,2,3,22,22,21,24,4,5,5,5,5,5,
5,5,5,5,5,5,5,16,3,4,5,5,6,24,21,22,23,7,12,5,5,5,5,16,3,21,7,9,24,21,1,18,5,5,16,3,24,24,1,18,5,5,5,5,5,
5,5,5,5,5,5,5,5,16,18,5,5,6,24,23,1,3,23,7,12,5,5,5,5,6,20,24,21,20,23,4,5,5,5,5,16,2,2,18,5,5,5,5,5,5,
5,5,5,5,5,5,5,5,5,5,5,5,6,24,24,4,6,20,21,4,5,5,5,5,6,23,21,24,23,20,4,5,5,5,5,5,5,5,5,10,12,5,5,5,5,
5,5,5,5,5,5,5,5,5,5,5,5,6,24,21,4,6,24,24,4,5,5,5,5,6,24,24,21,23,24,4,5,5,5,5,5,5,5,5,6,7,12,5,5,5,
10,12,10,8,8,12,5,5,5,5,5,5,6,23,1,18,6,22,1,18,5,5,5,5,6,22,24,23,21,24,4,5,5,5,5,5,5,5,5,6,1,18,5,5,5,
6,7,9,19,1,18,5,5,5,5,5,10,9,24,4,10,9,23,4,5,5,5,5,5,6,24,24,24,22,24,7,12,5,5,5,5,5,5,5,16,18,5,5,5,5,
6,22,22,19,4,5,5,5,10,12,10,9,21,20,7,9,23,22,4,5,5,5,5,5,6,21,24,24,20,22,24,4,5,5,5,5,5,5,5,5,5,5,5,5,5,
16,3,1,2,18,5,5,10,9,7,9,22,23,22,22,24,23,23,7,12,5,5,5,10,9,22,21,24,23,23,21,7,12,5,5,5,10,8,8,8,12,5,5,5,5,
5,6,7,12,5,10,8,9,23,24,23,23,23,21,19,21,22,21,24,7,8,8,8,9,21,23,24,22,22,23,24,22,7,12,5,10,9,24,24,22,7,12,5,5,5,
5,16,3,4,5,6,20,23,23,22,23,24,24,24,20,23,23,24,20,22,24,24,20,1,2,2,3,22,24,23,24,23,24,7,8,9,24,22,24,22,23,7,8,8,8,
5,5,6,7,8,9,22,21,24,23,24,24,23,22,20,24,24,22,22,23,22,20,1,18,5,5,6,21,24,24,24,24,24,22,23,1,2,2,2,3,22,22,24,24,24,
5,5,6,22,19,24,20,1,2,2,3,24,22,24,24,24,24,24,24,23,21,24,4,5,5,10,9,24,21,24,23,24,23,24,24,4,5,5,5,16,3,19,24,23,22,
10,8,9,24,24,1,2,18,10,8,9,23,23,24,23,23,24,21,24,21,21,23,7,8,8,9,22,24,23,24,21,24,23,20,22,4,5,5,5,5,6,24,22,1,3,
9,20,20,24,1,18,10,8,9,24,24,24,21,1,2,2,2,3,22,22,23,24,20,24,24,23,24,1,2,3,24,24,24,24,22,4,5,5,5,5,6,23,23,4,6,
21,22,21,24,4,10,9,24,24,23,24,1,2,18,5,5,5,16,3,24,23,24,19,24,22,24,22,7,12,16,3,22,24,22,24,7,8,8,8,8,9,24,1,18,6,
24,21,24,22,7,9,19,24,24,24,23,4,5,5,5,5,5,5,16,3,21,23,24,23,23,23,24,24,7,12,16,2,2,3,24,24,21,24,24,24,24,1,18,10,9,
19,24,22,24,21,24,21,22,24,22,1,18,5,5,5,5,5,5,5,16,3,22,23,1,3,22,23,23,22,7,8,8,8,9,21,19,1,2,3,23,20,4,10,9,22,
1,2,3,21,24,24,24,20,23,1,18,5,5,10,8,12,5,5,5,5,16,3,1,18,6,24,24,23,24,24,22,22,22,21,1,2,18,5,6,22,24,7,9,23,22,
18,5,16,2,3,22,23,23,22,7,8,8,12,6,22,7,12,5,5,5,5,6,7,12,6,22,24,21,23,22,19,24,21,1,18,5,5,10,9,24,23,22,24,21,21,
5,5,5,5,16,2,2,3,24,20,23,24,7,9,21,21,4,5,5,10,8,25,3,4,6,23,24,23,24,19,24,1,2,18,5,5,10,9,21,24,24,24,24,20,24,
5,5,5,5,5,5,5,6,20,21,24,24,23,21,24,1,18,5,10,9,19,7,9,7,9,24,21,23,19,24,24,7,8,8,8,8,9,20,24,1,3,23,19,23,24,
5,5,5,5,5,5,5,16,3,23,22,22,23,24,1,18,5,5,6,23,1,2,2,2,2,3,22,22,20,22,23,22,24,23,23,21,24,19,24,4,16,3,20,23,21,
5,5,5,5,5,5,5,5,16,3,23,23,23,22,4,5,5,5,16,3,4,5,5,5,5,16,2,2,3,23,19,21,22,20,23,21,22,20,20,7,12,6,24,21,24,
5,5,5,5,5,5,5,5,5,6,22,23,1,2,18,10,8,8,12,6,4,5,5,5,5,5,5,5,16,2,3,24,21,23,21,21,21,20,23,23,7,9,24,23,22,
5,5,5,5,5,5,5,5,5,16,3,23,7,12,10,9,23,22,7,9,7,8,8,12,5,5,5,5,5,5,16,2,2,2,3,22,24,24,23,23,23,20,24,24,24,
5,5,5,5,5,5,5,5,5,5,6,24,22,7,9,20,22,22,20,23,20,20,21,7,8,12,5,5,5,5,5,5,5,5,16,3,23,24,21,21,23,23,24,22,23
</data>
 </layer>
 <layer id="2" name="Walls" width="45" height="45">
  <data encoding="csv">
31,32,32,32,32,32,32,32,32,32,32,32,32,32,32,32,32,32,32,32,32,32,32,32,32,32,32,32,32,32,32,32,32,32,32,32,32,32,32,32,32,32,32,32,33,
34,35,35,35,35,35,35,35,35,35,35,35,35,35,35,35,35,35,35,35,35,35,35,35,35,35,35,35,35,35,35,35,35,35,35,35,35,35,35,35,35,35,35,35,36,
34,35,35,35,35,35,35,35,35,35,35,35,35,35,35,35,35,35,35,35,35,35,35,35,35,35,35,35,35,35,35,35,35,35,35,35,35,35,35,35,35,35,35,35,36,
34,35,35,35,35,35,35,35,35,35,35,35,35,35,35,35,35,35,35,35,35,35,35,35,35,35,35,35,35,35,35,35,35,35,35,35,35,35,35,35,35,35,35,35,36,
34,35,35,35,35,35,35,35,35,35,35,35,35,35,35,35,35,35,35,35,35,35,35,35,35,35,35,35,35,35,35,35,35,35,35,35,35,35,35,35,35,35,35,35,36,
34,35,35,35,35,35,35,35,35,35,35,35,35,35,35,35,35,35,35,35,35,35,35,35,35,35,35,35,35,35,35,35,35,35,35,35,35,35,35,35,35,35,35,35,36,
34,35,35,35,35,35,35,35,35,35,35,35,35,35,35,35,35,35,35,35,35,35,35,35,35,35,35,35,35,35,35,35,35,35,35,35,35,35,35,35,35,35,35,35,36,
34,35,35,35,35,35,35,35,35,35,35,35,35,35,35,35,35,35,35,35,35,35,35,35,35,35,35,35,35,35,35,35,35,35,35,35,35,35,35,35,35,35,35,35,36,
34,35,35,35,35,35,35,35,35,35,35,35,35,35,35,35,35,35,35,35,35,35,35,35,35,35,35,35,35,35,35,35,35,35,35,35,35,35,35,35,35,35,35,35,36,
34,35,35,35,35,35,35,35,35,35,35,35,35,35,35,35,35,35,35,35,35,35,35,35,35,35,35,35,35,35,35,35,35,35,35,35,35,35,35,35,35,35,35,35,36,
34,35,35,35,35,35,35,35,35,35,35,35,35,35,35,35,35,35,35,35,35,35,35,35,35,35,35,35,35,35,35,35,35,35,35,35,35,35,35,35,35,35,35,35,36,
34,35,35,35,35,35,35,35,35,35,35,35,35,35,35,35,35,35,35,35,35,35,35,35,35,35,35,35,35,35,35,35,35,35,35,35,35,35,35,35,35,35,35,35,36,
34,35,35,35,35,35,35,35,35,35,35,35,35,35,35,35,35,35,35,35,35,35,35,35,35,35,35,35,35,35,35,35,35,35,35,35,35,35,35,35,35,35,35,35,36,
34,35,35,35,35,35,35,35,35,35,35,35,35,35,35,35,35,35,35,35,35,35,35,35,35,35,35,35,35,35,35,35,35,35,35,35,35,35,35,35,35,35,35,35,36,
34,35,35,35,35,35,35,35,35,35,35,35,35,35,35,35,35,35,35,35,35,35,35,35,35,35,35,35,35,35,35,35,35,35,35,35,35,35,35,35,35,35,35,35,36,
34,35,35,35,35,35,35,35,35,35,35,35,35,35,35,35,35,35,35,35,35,35,35,35,35,35,35,35,35,35,35,35,35,35,35,35,35,35,35,35,35,35,35,35,36,
34,35,35,35,35,35,35,35,35,35,35,35,35,35,35,35,35,35,35,35,35,35,35,35,35,35,35,35,35,35,35,35,35,35,35,35,35,35,35,35,35,35,35,35,36,
34,35,35,35,35,35,35,35,35,35,35,35,35,35,35,35,35,35,35,35,35,35,35,35,35,35,35,35,35,35,35,35,35,35,35,35,35,35,35,35,35,35,35,35,36,
34,35,35,35,35,35,35,35,35,35,35,35,35,35,35,35,35,35,35,35,35,35,35,35,35,35,35,35,35,35,35,35,35,35,35,35,35,35,35,35,35,35,35,35,36,
34,35,35,35,35,35,35,35,35,35,35,35,35,35,35,35,35,35,35,35,35,35,35,35,35,35,35,35,35,35,35,35,35,35,35,35,35,35,35,35,35,35,35,35,36,
34,35,35,35,35,35,35,35,35,35,35,35,35,35,35,35,35,35,35,35,35,35,35,35,35,35,35,35,35,35,35,35,35,35,35,35,35,35,35,35,35,35,35,35,36,
34,35,35,35,35,35,35,35,35,35,35,35,35,35,35,35,35,35,35,35,35,35,35,35,35,35,35,35,35,35,35,35,35,35,35,35,35,35,35,35,35,35,35,35,36,
34,35,35,35,35,35,35,35,35,35,35,35,35,35,35,35,35,35,35,35,35,35,35,35,35,35,35,35,35,35,35,35,35,35,35,35,35,35,35,35,35,35,35,35,36,
34,35,35,35,35,35,35,35,35,35,35,35,35,35,35,35,35,35,35,35,35,35,35,35,35,35,35,35,35,35,35,35,35,35,35,35,35,35,35,35,35,35,35,35,36,
34,35,35,35,35,35,35,35,35,35,35,35,35,35,35,35,35,35,35,35,35,35,35,35,35,35,35,35,35,35,35,35,35,35,35,35,35,35,35,35,35,35,35,35,36,
34,35,35,35,35,35,35,35,35,35,35,35,35,35,35,35,35,35,35,35,35,35,35,35,35,35,35,35,35,35,35,35,35,35,35,35,35,35,35,35,35,35,35,35,36,
34,35,35,35,35,35,35,35,35,35,35,35,35,35,35,35,35,35,35,35,35,35,35,35,35,35,35,35,35,35,35,35,35,35,35,35,35,35,35,35,35,35,35,35,36,
34,35,35,35,35,35,35,35,35,35,35,35,35,35,35,35,35,35,35,35,35,35,35,35,35,35,35,35,35,35,35,35,35,35,35,35,35,35,35,35,35,35,35,35,36,
34,35,35,35,35,35,35,35,35,35,35,35,35,35,35,35,35,35,35,35,35,35,35,35,35,35,35,35,35,35,35,35,35,35,35,35,35,35,35,35,35,35,35,35,36,
34,35,35,35,35,35,35,35,35,35,35,35,35,35,35,35,35,35,35,35,35,35,35,35,35,35,35,35,35,35,35,35,35,35,35,35,35,35,35,35,35,35,35,35,36,
34,35,35,35,35,35,35,35,35,35,35,35,35,35,35,35,35,35,35,35,35,35,35,35,35,35,35,35,35,35,35,35,35,35,35,35,35,35,35,35,35,35,35,35,36,
34,35,35,35,35,35,35,35,35,35,35,35,47,35,35,35,35,35,35,35,35,35,35,35,35,35,35,35,35,35,35,35,35,35,35,35,35,35,35,35,35,35,35,35,36,
34,35,35,35,35,35,35,35,35,35,35,35,35,47,35,35,35,35,35,35,35,35,35,35,35,35,35,35,35,35,35,35,35,35,35,35,35,35,35,35,35,35,35,35,36,
34,35,35,35,35,35,35,35,35,35,35,35,35,35,35,35,35,35,35,35,35,35,35,35,35,35,35,35,35,35,35,35,35,35,35,35,35,35,35,35,35,35,35,35,36,
34,35,35,35,35,35,35,35,35,35,35,35,35,35,35,35,35,35,35,35,35,35,35,35,35,35,35,35,35,35,35,35,35,35,35,35,35,35,35,35,35,35,35,35,36,
34,35,35,35,35,35,35,35,35,35,35,35,35,35,35,35,35,35,35,35,35,35,35,35,35,35,35,35,35,35,35,35,35,35,35,35,35,35,35,35,35,35,35,35,36,
34,35,35,35,35,35,35,35,35,35,35,35,35,35,35,35,35,35,35,35,35,35,35,35,35,35,35,35,35,35,35,35,35,35,35,35,35,35,35,35,35,35,35,35,36,
34,35,35,35,35,35,35,35,35,35,35,35,35,35,35,35,35,35,35,35,35,35,35,35,35,35,35,35,35,35,35,35,35,35,35,35,35,35,35,35,35,35,35,35,36,
34,35,35,35,35,35,35,35,35,35,35,35,35,35,35,35,35,35,35,35,35,35,35,35,35,35,35,35,35,35,35,35,35,35,35,35,35,35,35,35,35,35,35,35,36,
34,35,35,35,35,35,35,35,35,35,35,35,35,35,35,35,35,35,35,35,35,35,35,35,35,35,35,35,35,35,35,35,35,35,35,35,35,35,35,35,35,35,35,35,36,
34,35,35,35,35,35,35,35,35,35,35,35,35,35,35,35,35,35,35,35,35,35,35,35,35,35,35,35,35,35,35,35,35,35,35,35,35,35,35,35,35,35,35,35,36,
37,38,38,38,42,35,35,35,35,35,35,35,35,35,35,35,35,35,35,35,35,35,35,35,35,35,35,35,35,35,35,35,35,35,35,35,35,35,35,35,35,35,35,35,36,
40,40,40,40,34,35,35,35,35,35,35,35,35,35,35,35,35,35,35,35,35,35,35,35,35,35,35,35,35,35,35,35,35,35,35,35,35,35,35,35,35,35,35,35,36,
40,40,40,40,34,35,35,35,35,35,35,35,35,35,35,35,35,35,35,35,35,35,35,35,35,35,35,35,35,35,35,35,35,35,35,35,35,35,35,35,35,35,35,35,36,
40,40,40,40,37,38,38,38,38,38,38,38,38,38,38,38,38,38,38,38,38,38,38,38,38,38,38,38,38,38,38,38,38,38,38,38,38,38,38,38,38,38,38,38,39
</data>
 </layer>
 <objectgroup id="4" name="Spawnpoints">
  <object id="45" gid="49" x="3376" y="227" width="45" height="45"/>
  <object id="155" gid="49" x="2424" y="235" width="45" height="45"/>
  <object id="99" gid="49" x="2888" y="235" width="45" height="45"/>
  <object id="153" gid="49" x="1936" y="243" width="45" height="45"/>
  <object id="67" gid="49" x="3382.06" y="1666.39" width="45" height="45"/>
  <object id="131" gid="49" x="2430.06" y="1674.39" width="45" height="45"/>
  <object id="87" gid="49" x="2894.06" y="1674.39" width="45" height="45"/>
  <object id="129" gid="49" x="1942.06" y="1682.39" width="45" height="45"/>
  <object id="46" gid="49" x="3142" y="459" width="45" height="45"/>
  <object id="152" gid="49" x="2190" y="467" width="45" height="45"/>
  <object id="98" gid="49" x="2654" y="467" width="45" height="45"/>
  <object id="150" gid="49" x="1702" y="475" width="45" height="45"/>
  <object id="66" gid="49" x="3148.06" y="1898.39" width="45" height="45"/>
  <object id="128" gid="49" x="2196.06" y="1906.39" width="45" height="45"/>
  <object id="86" gid="49" x="2660.06" y="1906.39" width="45" height="45"/>
  <object id="126" gid="49" x="1708.06" y="1914.39" width="45" height="45"/>
  <object id="47" gid="49" x="3136" y="221" width="45" height="45"/>
  <object id="156" gid="49" x="2184" y="229" width="45" height="45"/>
  <object id="100" gid="49" x="2648" y="229" width="45" height="45"/>
  <object id="154" gid="49" x="1696" y="237" width="45" height="45"/>
  <object id="68" gid="49" x="3142.06" y="1660.39" width="45" height="45"/>
  <object id="132" gid="49" x="2190.06" y="1668.39" width="45" height="45"/>
  <object id="88" gid="49" x="2654.06" y="1668.39" width="45" height="45"/>
  <object id="130" gid="49" x="1702.06" y="1676.39" width="45" height="45"/>
  <object id="48" gid="49" x="3384" y="467" width="45" height="45"/>
  <object id="151" gid="49" x="2432" y="475" width="45" height="45"/>
  <object id="97" gid="49" x="2896" y="475" width="45" height="45"/>
  <object id="149" gid="49" x="1944" y="483" width="45" height="45"/>
  <object id="65" gid="49" x="3390.06" y="1906.39" width="45" height="45"/>
  <object id="127" gid="49" x="2438.06" y="1914.39" width="45" height="45"/>
  <object id="85" gid="49" x="2902.06" y="1914.39" width="45" height="45"/>
  <object id="125" gid="49" x="1950.06" y="1922.39" width="45" height="45"/>
  <object id="49" gid="49" x="3138" y="705" width="45" height="45"/>
  <object id="147" gid="49" x="2186" y="713" width="45" height="45"/>
  <object id="95" gid="49" x="2650" y="713" width="45" height="45"/>
  <object id="145" gid="49" x="1698" y="721" width="45" height="45"/>
  <object id="63" gid="49" x="3144.06" y="2144.39" width="45" height="45"/>
  <object id="123" gid="49" x="2192.06" y="2152.39" width="45" height="45"/>
  <object id="83" gid="49" x="2656.06" y="2152.39" width="45" height="45"/>
  <object id="121" gid="49" x="1704.06" y="2160.39" width="45" height="45"/>
  <object id="50" gid="49" x="3374" y="703" width="45" height="45"/>
  <object id="148" gid="49" x="2422" y="711" width="45" height="45"/>
  <object id="96" gid="49" x="2886" y="711" width="45" height="45"/>
  <object id="146" gid="49" x="1934" y="719" width="45" height="45"/>
  <object id="64" gid="49" x="3380.06" y="2142.39" width="45" height="45"/>
  <object id="124" gid="49" x="2428.06" y="2150.39" width="45" height="45"/>
  <object id="84" gid="49" x="2892.06" y="2150.39" width="45" height="45"/>
  <object id="122" gid="49" x="1940.06" y="2158.39" width="45" height="45"/>
  <object id="51" gid="49" x="3136" y="939" width="45" height="45"/>
  <object id="144" gid="49" x="2184" y="947" width="45" height="45"/>
  <object id="94" gid="49" x="2648" y="947" width="45" height="45"/>
  <object id="142" gid="49" x="1696" y="955" width="45" height="45"/>
  <object id="62" gid="49" x="3142.06" y="2378.39" width="45" height="45"/>
  <object id="120" gid="49" x="2190.06" y="2386.39" width="45" height="45"/>
  <object id="82" gid="49" x="2654.06" y="2386.39" width="45" height="45"/>
  <object id="118" gid="49" x="1702.06" y="2394.39" width="45" height="45"/>
  <object id="52" gid="49" x="3390" y="943" width="45" height="45"/>
  <object id="143" gid="49" x="2438" y="951" width="45" height="45"/>
  <object id="93" gid="49" x="2902" y="951" width="45" height="45"/>
  <object id="141" gid="49" x="1950" y="959" width="45" height="45"/>
  <object id="61" gid="49" x="3396.06" y="2382.39" width="45" height="45"/>
  <object id="119" gid="49" x="2444.06" y="2390.39" width="45" height="45"/>
  <object id="81" gid="49" x="2908.06" y="2390.39" width="45" height="45"/>
  <object id="117" gid="49" x="1956.06" y="2398.39" width="45" height="45"/>
  <object id="53" gid="49" x="3142" y="1189" width="45" height="45"/>
  <object id="139" gid="49" x="2190" y="1197" width="45" height="45"/>
  <object id="91" gid="49" x="2654" y="1197" width="45" height="45"/>
  <object id="137" gid="49" x="1702" y="1205" width="45" height="45"/>
  <object id="59" gid="49" x="3148.06" y="2628.39" width="45" height="45"/>
  <object id="115" gid="49" x="2196.06" y="2636.39" width="45" height="45"/>
  <object id="79" gid="49" x="2660.06" y="2636.39" width="45" height="45"/>
  <object id="113" gid="49" x="1708.06" y="2644.39" width="45" height="45"/>
  <object id="54" gid="49" x="3384" y="1183" width="45" height="45"/>
  <object id="140" gid="49" x="2432" y="1191" width="45" height="45"/>
  <object id="92" gid="49" x="2896" y="1191" width="45" height="45"/>
  <object id="138" gid="49" x="1944" y="1199" width="45" height="45"/>
  <object id="60" gid="49" x="3390.06" y="2622.39" width="45" height="45"/>
  <object id="116" gid="49" x="2438.06" y="2630.39" width="45" height="45"/>
  <object id="80" gid="49" x="2902.06" y="2630.39" width="45" height="45"/>
  <object id="114" gid="49" x="1950.06" y="2638.39" width="45" height="45"/>
  <object id="55" gid="49" x="3138" y="1421" width="45" height="45"/>
  <object id="136" gid="49" x="2186" y="1429" width="45" height="45"/>
  <object id="90" gid="49" x="2650" y="1429" width="45" height="45"/>
  <object id="133" gid="49" x="1698" y="1437" width="45" height="45"/>
  <object id="58" gid="49" x="3144.06" y="2860.39" width="45" height="45"/>
  <object id="111" gid="49" x="2192.06" y="2868.39" width="45" height="45"/>
  <object id="77" gid="49" x="2656.06" y="2868.39" width="45" height="45"/>
  <object id="109" gid="49" x="1704.06" y="2876.39" width="45" height="45"/>
  <object id="56" gid="49" x="3388" y="1421" width="45" height="45"/>
  <object id="135" gid="49" x="2436" y="1429" width="45" height="45"/>
  <object id="89" gid="49" x="2900" y="1429" width="45" height="45"/>
  <object id="134" gid="49" x="1948" y="1437" width="45" height="45"/>
  <object id="57" gid="49" x="3394.06" y="2860.39" width="45" height="45"/>
  <object id="112" gid="49" x="2442.06" y="2868.39" width="45" height="45"/>
  <object id="78" gid="49" x="2906.06" y="2868.39" width="45" height="45"/>
  <object id="110" gid="49" x="1954.06" y="2876.39" width="45" height="45"/>
  <object id="69" gid="49" x="3138" y="3104.33" width="45" height="45"/>
  <object id="107" gid="49" x="2186" y="3112.33" width="45" height="45"/>
  <object id="75" gid="49" x="2650" y="3112.33" width="45" height="45"/>
  <object id="105" gid="49" x="1698" y="3120.33" width="45" height="45"/>
  <object id="70" gid="49" x="3376.67" y="3101.67" width="45" height="45"/>
  <object id="108" gid="49" x="2424.67" y="3109.67" width="45" height="45"/>
  <object id="76" gid="49" x="2888.67" y="3109.67" width="45" height="45"/>
  <object id="106" gid="49" x="1936.67" y="3117.67" width="45" height="45"/>
  <object id="71" gid="49" x="3135.33" y="3339" width="45" height="45"/>
  <object id="103" gid="49" x="2183.33" y="3347" width="45" height="45"/>
  <object id="73" gid="49" x="2647.33" y="3347" width="45" height="45"/>
  <object id="101" gid="49" x="1695.33" y="3355" width="45" height="45"/>
  <object id="72" gid="49" x="3380.67" y="3337.67" width="45" height="45"/>
  <object id="104" gid="49" x="2428.67" y="3345.67" width="45" height="45"/>
  <object id="74" gid="49" x="2892.67" y="3345.67" width="45" height="45"/>
  <object id="102" gid="49" x="1940.67" y="3353.67" width="45" height="45"/>
  <object id="157" gid="49" x="1382" y="221" width="45" height="45"/>
  <object id="205" gid="49" x="1382" y="1185" width="45" height="45"/>
  <object id="181" gid="49" x="1376" y="709" width="45" height="45"/>
  <object id="192" gid="49" x="1376" y="1673" width="45" height="45"/>
  <object id="158" gid="49" x="1138" y="223" width="45" height="45"/>
  <object id="203" gid="49" x="1138" y="1187" width="45" height="45"/>
  <object id="179" gid="49" x="1132" y="711" width="45" height="45"/>
  <object id="190" gid="49" x="1132" y="1675" width="45" height="45"/>
  <object id="159" gid="49" x="898" y="225" width="45" height="45"/>
  <object id="201" gid="49" x="898" y="1189" width="45" height="45"/>
  <object id="177" gid="49" x="892" y="713" width="45" height="45"/>
  <object id="188" gid="49" x="892" y="1677" width="45" height="45"/>
  <object id="160" gid="49" x="660" y="225" width="45" height="45"/>
  <object id="200" gid="49" x="660" y="1189" width="45" height="45"/>
  <object id="176" gid="49" x="654" y="713" width="45" height="45"/>
  <object id="189" gid="49" x="654" y="1677" width="45" height="45"/>
  <object id="161" gid="49" x="416" y="223" width="45" height="45"/>
  <object id="202" gid="49" x="416" y="1187" width="45" height="45"/>
  <object id="178" gid="49" x="410" y="711" width="45" height="45"/>
  <object id="191" gid="49" x="410" y="1675" width="45" height="45"/>
  <object id="162" gid="49" x="174" y="221" width="45" height="45"/>
  <object id="204" gid="49" x="174" y="1185" width="45" height="45"/>
  <object id="180" gid="49" x="168" y="709" width="45" height="45"/>
  <object id="193" gid="49" x="168" y="1673" width="45" height="45"/>
  <object id="163" gid="49" x="180" y="465" width="45" height="45"/>
  <object id="196" gid="49" x="180" y="1429" width="45" height="45"/>
  <object id="172" gid="49" x="174" y="953" width="45" height="45"/>
  <object id="183" gid="49" x="174" y="1917" width="45" height="45"/>
  <object id="164" gid="49" x="412" y="467" width="45" height="45"/>
  <object id="194" gid="49" x="412" y="1431" width="45" height="45"/>
  <object id="170" gid="49" x="406" y="955" width="45" height="45"/>
  <object id="182" gid="49" x="406" y="1919" width="45" height="45"/>
  <object id="165" gid="49" x="660" y="461" width="45" height="45"/>
  <object id="197" gid="49" x="660" y="1425" width="45" height="45"/>
  <object id="173" gid="49" x="654" y="949" width="45" height="45"/>
  <object id="185" gid="49" x="654" y="1913" width="45" height="45"/>
  <object id="166" gid="49" x="902" y="459" width="45" height="45"/>
  <object id="199" gid="49" x="902" y="1423" width="45" height="45"/>
  <object id="175" gid="49" x="896" y="947" width="45" height="45"/>
  <object id="186" gid="49" x="896" y="1911" width="45" height="45"/>
  <object id="167" gid="49" x="1140" y="459" width="45" height="45"/>
  <object id="198" gid="49" x="1140" y="1423" width="45" height="45"/>
  <object id="174" gid="49" x="1134" y="947" width="45" height="45"/>
  <object id="187" gid="49" x="1134" y="1911" width="45" height="45"/>
  <object id="169" gid="49" x="1382" y="465" width="45" height="45"/>
  <object id="195" gid="49" x="1382" y="1429" width="45" height="45"/>
  <object id="171" gid="49" x="1376" y="953" width="45" height="45"/>
  <object id="184" gid="49" x="1376" y="1917" width="45" height="45"/>
 </objectgroup>
 <objectgroup id="5" name="Wall_NPC">
  <object id="7" gid="50" x="80" y="3520.02" width="320.356" height="240.376"/>
 </objectgroup>
 <layer id="3" name="Wall_Hit" width="45" height="45" visible="0">
  <data encoding="csv">
40,40,40,40,40,40,40,40,40,40,40,40,40,40,40,40,40,40,40,40,40,40,40,40,40,40,40,40,40,40,40,40,40,40,40,40,40,40,40,40,40,40,40,40,40,
40,0,0,0,0,0,0,0,0,0,0,0,0,0,0,0,0,0,0,0,0,0,0,0,0,0,0,0,0,0,0,0,0,0,0,0,0,0,0,0,0,0,0,0,40,
40,0,0,0,0,0,0,0,0,0,0,0,0,0,0,0,0,0,0,0,0,0,0,0,0,0,0,0,0,0,0,0,0,0,0,0,0,0,0,0,0,0,0,0,40,
40,0,0,0,0,0,0,0,0,0,0,0,0,0,0,0,0,0,0,0,0,0,0,0,0,0,0,0,0,0,0,0,0,0,0,0,0,0,0,0,0,0,0,0,40,
40,0,0,0,0,0,0,0,0,0,0,0,0,0,0,0,0,0,0,0,0,0,0,0,0,0,0,0,0,0,0,0,0,0,0,0,0,0,0,0,0,0,0,0,40,
40,0,0,0,0,0,0,0,0,0,0,0,0,0,0,0,0,0,0,0,0,0,0,0,0,0,0,0,0,0,0,0,0,0,0,0,0,0,0,0,0,0,0,0,40,
40,0,0,0,0,0,0,0,0,0,0,0,0,0,0,0,0,0,0,0,0,0,0,0,0,0,0,0,0,0,0,0,0,0,0,0,0,0,0,0,0,0,0,0,40,
40,0,0,0,0,0,0,0,0,0,0,0,0,0,0,0,0,0,0,0,0,0,0,0,0,0,0,0,0,0,0,0,0,0,0,0,0,0,0,0,0,0,0,0,40,
40,0,0,0,0,0,0,0,0,0,0,0,0,0,0,0,0,0,0,0,0,0,0,0,0,0,0,0,0,0,0,0,0,0,0,0,0,0,0,0,0,0,0,0,40,
40,0,0,0,0,0,0,0,0,0,0,0,0,0,0,0,0,0,0,0,0,0,0,0,0,0,0,0,0,0,0,0,0,0,0,0,0,0,0,0,0,0,0,0,40,
40,0,0,0,0,0,0,0,0,0,0,0,0,0,0,0,0,0,0,0,0,0,0,0,0,0,0,0,0,0,0,0,0,0,0,0,0,0,0,0,0,0,0,0,40,
40,0,0,0,0,0,0,0,0,0,0,0,0,0,0,0,0,0,0,0,0,0,0,0,0,0,0,0,0,0,0,0,0,0,0,0,0,0,0,0,0,0,0,0,40,
40,0,0,0,0,0,0,0,0,0,0,0,0,0,0,0,0,0,0,0,0,0,0,0,0,0,0,0,0,0,0,0,0,0,0,0,0,0,0,0,0,0,0,0,40,
40,0,0,0,0,0,0,0,0,0,0,0,0,0,0,0,0,0,0,0,0,0,0,0,0,0,0,0,0,0,0,0,0,0,0,0,0,0,0,0,0,0,0,0,40,
40,0,0,0,0,0,0,0,0,0,0,0,0,0,0,0,0,0,0,0,0,0,0,0,0,0,0,0,0,0,0,0,0,0,0,0,0,0,0,0,0,0,0,0,40,
40,0,0,0,0,0,0,0,0,0,0,0,0,0,0,0,0,0,0,0,0,0,0,0,0,0,0,0,0,0,0,0,0,0,0,0,0,0,0,0,0,0,0,0,40,
40,0,0,0,0,0,0,0,0,0,0,0,0,0,0,0,0,0,0,0,0,0,0,0,0,0,0,0,0,0,0,0,0,0,0,0,0,0,0,0,0,0,0,0,40,
40,0,0,0,0,0,0,0,0,0,0,0,0,0,0,0,0,0,0,0,0,0,0,0,0,0,0,0,0,0,0,0,0,0,0,0,0,0,0,0,0,0,0,0,40,
40,0,0,0,0,0,0,0,0,0,0,0,0,0,0,0,0,0,0,0,0,0,0,0,0,0,0,0,0,0,0,0,0,0,0,0,0,0,0,0,0,0,0,0,40,
40,0,0,0,0,0,0,0,0,0,0,0,0,0,0,0,0,0,0,0,0,0,0,0,0,0,0,0,0,0,0,0,0,0,0,0,0,0,0,0,0,0,0,0,40,
40,0,0,0,0,0,0,0,0,0,0,0,0,0,0,0,0,0,0,0,0,0,0,0,0,0,0,0,0,0,0,0,0,0,0,0,0,0,0,0,0,0,0,0,40,
40,0,0,0,0,0,0,0,0,0,0,0,0,0,0,0,0,0,0,0,0,0,0,0,0,0,0,0,0,0,0,0,0,0,0,0,0,0,0,0,0,0,0,0,40,
40,0,0,0,0,0,0,0,0,0,0,0,0,0,0,0,0,0,0,0,0,0,0,0,0,0,0,0,0,0,0,0,0,0,0,0,0,0,0,0,0,0,0,0,40,
40,0,0,0,0,0,0,0,0,0,0,0,0,0,0,0,0,0,0,0,0,0,0,0,0,0,0,0,0,0,0,0,0,0,0,0,0,0,0,0,0,0,0,0,40,
40,0,0,0,0,0,0,0,0,0,0,0,0,0,0,0,0,0,0,0,0,0,0,0,0,0,0,0,0,0,0,0,0,0,0,0,0,0,0,0,0,0,0,0,40,
40,0,0,0,0,0,0,0,0,0,0,0,0,0,0,0,0,0,0,0,0,0,0,0,0,0,0,0,0,0,0,0,0,0,0,0,0,0,0,0,0,0,0,0,40,
40,0,0,0,0,0,0,0,0,0,0,0,0,0,0,0,0,0,0,0,0,0,0,0,0,0,0,0,0,0,0,0,0,0,0,0,0,0,0,0,0,0,0,0,40,
40,0,0,0,0,0,0,0,0,0,0,0,0,0,0,0,0,0,0,0,0,0,0,0,0,0,0,0,0,0,0,0,0,0,0,0,0,0,0,0,0,0,0,0,40,
40,0,0,0,0,0,0,0,0,0,0,0,0,0,0,0,0,0,0,0,0,0,0,0,0,0,0,0,0,0,0,0,0,0,0,0,0,0,0,0,0,0,0,0,40,
40,0,0,0,0,0,0,0,0,0,0,0,0,0,0,0,0,0,0,0,0,0,0,0,0,0,0,0,0,0,0,0,0,0,0,0,0,0,0,0,0,0,0,0,40,
40,0,0,0,0,0,0,0,0,0,0,0,0,0,0,0,0,0,0,0,0,0,0,0,0,0,0,0,0,0,0,0,0,0,0,0,0,0,0,0,0,0,0,0,40,
40,0,0,0,0,0,0,0,0,0,0,0,0,0,0,0,0,0,0,0,0,0,0,0,0,0,0,0,0,0,0,0,0,0,0,0,0,0,0,0,0,0,0,0,40,
40,0,0,0,0,0,0,0,0,0,0,0,0,0,0,0,0,0,0,0,0,0,0,0,0,0,0,0,0,0,0,0,0,0,0,0,0,0,0,0,0,0,0,0,40,
40,0,0,0,0,0,0,0,0,0,0,0,0,0,0,0,0,0,0,0,0,0,0,0,0,0,0,0,0,0,0,0,0,0,0,0,0,0,0,0,0,0,0,0,40,
40,0,0,0,0,0,0,0,0,0,0,0,0,0,0,0,0,0,0,0,0,0,0,0,0,0,0,0,0,0,0,0,0,0,0,0,0,0,0,0,0,0,0,0,40,
40,0,0,0,0,0,0,0,0,0,0,0,0,0,0,0,0,0,0,0,0,0,0,0,0,0,0,0,0,0,0,0,0,0,0,0,0,0,0,0,0,0,0,0,40,
40,0,0,0,0,0,0,0,0,0,0,0,0,0,0,0,0,0,0,0,0,0,0,0,0,0,0,0,0,0,0,0,0,0,0,0,0,0,0,0,0,0,0,0,40,
40,0,0,0,0,0,0,0,0,0,0,0,0,0,0,0,0,0,0,0,0,0,0,0,0,0,0,0,0,0,0,0,0,0,0,0,0,0,0,0,0,0,0,0,40,
40,0,0,0,0,0,0,0,0,0,0,0,0,0,0,0,0,0,0,0,0,0,0,0,0,0,0,0,0,0,0,0,0,0,0,0,0,0,0,0,0,0,0,0,40,
40,0,0,0,0,0,0,0,0,0,0,0,0,0,0,0,0,0,0,0,0,0,0,0,0,0,0,0,0,0,0,0,0,0,0,0,0,0,0,0,0,0,0,0,40,
40,0,0,0,0,0,0,0,0,0,0,0,0,0,0,0,0,0,0,0,0,0,0,0,0,0,0,0,0,0,0,0,0,0,0,0,0,0,0,0,0,0,0,0,40,
40,40,40,40,40,0,0,0,0,0,0,0,0,0,0,0,0,0,0,0,0,0,0,0,0,0,0,0,0,0,0,0,0,0,0,0,0,0,0,0,0,0,0,0,40,
40,40,40,40,40,0,0,0,0,0,0,0,0,0,0,0,0,0,0,0,0,0,0,0,0,0,0,0,0,0,0,0,0,0,0,0,0,0,0,0,0,0,0,0,40,
40,40,40,40,40,0,0,0,0,0,0,0,0,0,0,0,0,0,0,0,0,0,0,0,0,0,0,0,0,0,0,0,0,0,0,0,0,0,0,0,0,0,0,0,40,
40,40,40,40,40,40,40,40,40,40,40,40,40,40,40,40,40,40,40,40,40,40,40,40,40,40,40,40,40,40,40,40,40,40,40,40,40,40,40,40,40,40,40,40,40
</data>
 </layer>
</map>
